X:1
T:Locheil's Away
C:as played by Daimh
M:2/4
L:1/16
R:Quickstep
N:all c# f#
K:D
Z:Initial transcription, Alan Wood
gf |: e2A2 {d}A2Bd | eAef g2dB | G2{d}G2 B2AG | B2d2 {c}d2gf |
| e2A2 A2Bd | eAef gedB | A2{d}A2 B2AG | g2e2 |1 {A}e2gf :|2 {A}e2dB |]
|| A2a2 {g}a2gf| eAef g4 | agfe d2Bd | g2d2 {c}d2Bd |
| e2a2 {g}a2gf | eAef g2fg | a2e2 {A}e2dB | a2e2 {A}e2dB |
| A2a2 {g}a2gf | eAef g4 | agfg d2Bd | g2d2 {c}d2ef |
| g2fe f2ed | eAef gedB | A2{d}A2 B2AG | g2e2 {A}e2gf ||
